flaticon/web-design/paper-plane.svg

<svg xmlns="http://www.w3.org/2000/svg" width="32" height="32" viewBox="0 0 24 24">
    <path d="M23.957031 17.433594L20.75 11.421875C20.683594 11.300781 20.554688 11.222656 20.417969 11.222656L18.789062 11.222656 18.789062 7.191406C18.789062 7.1875 18.789062 7.1875 18.789062 7.183594 18.789062 7.179688 18.789062 7.171875 18.789062 7.167969 18.789062 7.164062 18.789062 7.160156 18.789062 7.152344 18.785156 7.152344 18.785156 7.148438 18.785156 7.144531 18.785156 7.140625 18.785156 7.136719 18.785156 7.132812 18.785156 7.128906 18.78125 7.121094 18.78125 7.117188 18.78125 7.113281 18.78125 7.109375 18.78125 7.105469 18.777344 7.105469 18.777344 7.101562 18.777344 7.101562 18.777344 7.097656 18.777344 7.097656 18.777344 7.09375 18.777344 7.089844 18.773438 7.085938 18.773438 7.082031 18.773438 7.078125 18.769531 7.074219 18.769531 7.070312 18.769531 7.066406 18.765625 7.0625 18.765625 7.058594 18.765625 7.054688 18.761719 7.050781 18.761719 7.050781 18.757812 7.042969 18.757812 7.039062 18.757812 7.035156 18.753906 7.03125 18.75 7.027344 18.75 7.023438 18.75 7.019531 18.746094 7.019531 18.746094 7.015625 18.746094 7.011719 18.742188 7.007812 18.738281 7.003906 18.738281 7 18.734375 6.996094 18.730469 6.992188 18.730469 6.988281 18.730469 6.988281 18.726562 6.984375 18.726562 6.980469 18.722656 6.976562 18.71875 6.972656 18.71875 6.96875 18.714844 6.964844 18.710938 6.960938 18.710938 6.960938 18.707031 6.957031 18.707031 6.957031 18.703125 6.953125 18.699219 6.949219 18.699219 6.945312 18.695312 6.941406 18.691406 6.9375 18.6875 6.933594 18.6875 6.933594 18.683594 6.929688 18.683594 6.925781 18.679688 6.925781 18.675781 6.921875 18.671875 6.917969 18.667969 6.914062 18.667969 6.914062 18.664062 6.910156 18.660156 6.90625 18.65625 6.90625 18.65625 6.902344 18.652344 6.898438 18.648438 6.898438 18.644531 6.894531 18.640625 6.890625 18.640625 6.890625 18.636719 6.886719 18.632812 6.882812 18.628906 6.882812 18.625 6.878906 18.621094 6.878906 18.617188 6.875 18.613281 6.875 18.613281 6.871094 18.609375 6.867188 18.605469 6.867188 18.601562 6.863281 18.597656 6.863281 18.597656 6.863281 18.59375 6.859375 18.585938 6.855469 18.582031 6.855469 18.578125 6.851562 18.574219 6.851562 18.574219 6.851562 18.570312 6.847656 18.566406 6.847656 18.5625 6.84375 18.558594 6.84375 18.554688 6.84375 18.550781 6.839844 18.546875 6.839844 18.542969 6.835938 18.539062 6.835938 18.535156 6.835938 18.53125 6.832031 18.53125 6.832031 18.523438 6.832031 18.519531 6.832031 18.515625 6.828125 18.511719 6.828125 18.503906 6.824219 18.5 6.824219 18.5 6.824219 18.496094 6.824219 18.496094 6.824219L18.488281 6.820312 11.28125 5.21875C11.191406 5.199219 11.097656 5.214844 11.015625 5.257812L.199219 11.269531C.195312 11.269531.195312 11.269531.195312 11.269531L.191406 11.269531C.191406 11.269531.191406 11.273438.1875 11.273438.1875 11.273438.1875 11.273438.183594 11.277344.179688 11.277344.179688 11.28125.175781 11.28125.171875 11.285156.167969 11.285156.167969 11.285156.164062 11.289062.164062 11.289062.164062 11.289062.160156 11.289062.160156 11.292969.15625 11.292969.15625 11.292969.15625 11.296875.152344 11.296875.152344 11.296875.148438 11.300781.144531 11.300781.144531 11.304688.140625 11.304688.136719 11.308594.136719 11.308594.136719 11.308594.132812 11.3125.132812 11.3125.128906 11.316406.128906 11.316406.128906 11.316406.125 11.316406.125 11.320312.125 11.320312.121094 11.324219.117188 11.324219.117188 11.328125.113281 11.332031.109375 11.332031.109375 11.335938.109375 11.335938.109375 11.335938.105469 11.339844.105469 11.339844.101562 11.34375.101562 11.34375.101562 11.34375.0976562 11.34375.0976562 11.347656.09375 11.347656.09375 11.351562.0898438 11.355469.0898438 11.355469.0859375 11.359375.0859375 11.359375.0859375 11.363281.0820312 11.363281.0820312 11.363281.0820312 11.367188.078125 11.371094.078125 11.371094.078125 11.371094.0742188 11.375.0742188 11.375.0742188 11.378906.0703125 11.378906.0703125 11.382812.0664062 11.386719.0664062 11.386719.0625 11.390625.0625 11.390625.0625 11.394531.0585938 11.394531.0585938 11.398438.0585938 11.398438.0585938 11.402344.0546875 11.402344.0546875 11.402344.0546875 11.40625.0507812 11.410156.0507812 11.410156.046875 11.414062.046875 11.421875.0429688 11.425781.0429688 11.425781.0390625 11.429688.0390625 11.429688.0390625 11.433594.0390625 11.433594.0390625 11.433594.0351562 11.4375.0351562 11.441406.0351562 11.441406.03125 11.449219.03125 11.453125.0273438 11.457031.0273438 11.460938.0273438 11.460938.0234375 11.464844.0234375 11.464844.0234375 11.46875.0234375 11.46875.0234375 11.472656.0234375 11.472656.0195312 11.476562.0195312 11.480469.015625 11.484375.015625 11.488281.015625 11.492188.015625 11.492188.015625 11.492188.015625 11.496094.015625 11.496094.015625 11.5.0117188 11.503906.0117188 11.507812.0117188 11.515625.0078125 11.519531.0078125 11.523438.0078125 11.527344.0078125 11.527344.0078125 11.527344.0078125 11.53125.0078125 11.53125.0078125 11.53125.00390625 11.535156.00390625 11.535156.00390625 11.539062.00390625 11.542969.00390625 11.546875.00390625 11.546875.00390625 11.550781.00390625 11.554688.00390625 11.558594 0 11.5625 0 11.5625 0 11.566406 0 11.566406 0 11.566406 0 11.570312 0 11.570312 0 11.574219 0 11.574219 0 11.578125 0 11.582031 0 11.585938 0 11.589844 0 11.59375 0 11.597656 0 11.601562 0 11.605469 0 11.605469 0 11.609375 0 11.609375 0 11.613281 0 11.613281 0 11.621094 0 11.625 0 11.628906 0 11.632812 0 11.636719.00390625 11.636719.00390625 11.640625.00390625 11.644531.00390625 11.644531.00390625 11.648438.00390625 11.648438.00390625 11.652344.00390625 11.65625.00390625 11.660156.0078125 11.664062.0078125 11.667969.0078125 11.671875.0078125 11.671875.0078125 11.675781.0078125 11.675781.0078125 11.675781.0078125 11.679688.0078125 11.679688.0078125 11.683594.0117188 11.6875.0117188 11.695312.015625 11.699219.015625 11.699219.015625 11.703125.015625 11.703125.015625 11.703125.015625 11.707031.015625 11.707031.015625 11.710938.015625 11.710938.015625 11.710938.015625 11.714844.0195312 11.714844.0195312 11.714844.0195312 11.714844.0195312 11.71875.0195312 11.71875.0195312 11.722656.0234375 11.730469.0234375 11.734375.0273438 11.734375.0273438 11.734375.0273438 11.738281.0273438 11.738281.0273438 11.742188.0273438 11.742188.0273438 11.746094.03125 11.746094.03125 11.746094.03125 11.746094.03125 11.75.03125 11.75.03125 11.75.03125 11.75.03125 11.753906.0351562 11.757812.0390625 11.761719.0390625 11.765625.0429688 11.769531.0429688 11.773438.0429688 11.777344.046875 11.777344.046875 11.777344.046875 11.78125.046875 11.78125.046875 11.785156.0507812 11.785156.0507812 11.789062.0546875 11.792969.0585938 11.796875.0585938 11.800781.0585938 11.800781.0585938 11.804688.0625 11.804688.0625 11.804688.0625 11.808594.0664062 11.808594.0664062 11.8125.0703125 11.816406.0703125 11.816406.0703125 11.820312.0742188 11.824219.0742188 11.824219.078125 11.828125.078125 11.828125.0820312 11.832031.0820312 11.835938.0859375 11.835938.0859375 11.839844.0898438 11.839844.0898438 11.84375.09375 11.847656.09375 11.847656.0976562 11.851562.0976562 11.855469.101562 11.855469.101562 11.855469.105469 11.859375.105469 11.863281.109375 11.863281.109375 11.863281.109375 11.863281.109375 11.867188.113281 11.867188.113281 11.867188.113281 11.867188.117188 11.871094.121094 11.875.128906 11.878906.128906 11.882812.132812 11.886719.136719 11.890625.136719 11.890625.140625 11.890625.140625 11.894531.140625 11.894531.144531 11.894531.144531 11.894531.144531 11.898438.148438 11.898438.148438 11.898438.148438 11.898438.152344 11.902344.15625 11.902344.160156 11.90625.164062 11.910156.164062 11.910156.167969 11.910156.167969 11.914062.171875 11.914062.175781 11.917969.179688 11.917969.183594 11.921875.1875 11.925781.1875 11.925781.191406 11.925781.195312 11.929688.199219 11.929688.203125 11.933594.207031 11.9375.214844 11.9375.21875 11.941406.222656 11.941406.226562 11.945312.230469 11.945312.230469 11.945312.234375 11.945312.234375 11.945312L19.472656 19.964844C19.519531 19.980469 19.566406 19.992188 19.617188 19.992188 19.6875 19.992188 19.761719 19.96875 19.824219 19.929688 19.929688 19.859375 19.992188 19.742188 19.992188 19.617188L19.992188 17.0625 23.53125 17.976562C23.5625 17.984375 23.59375 17.988281 23.625 17.988281 23.738281 17.988281 23.847656 17.9375 23.917969 17.84375 24.011719 17.726562 24.027344 17.566406 23.957031 17.433594zM11.257812 5.984375L16.757812 7.207031 3 10.570312zM18.039062 7.667969L18.039062 11.222656 3.496094 11.222656zM19.238281 19.050781L5.40625 13.289062 19.238281 16.867188zM19.710938 16.210938L3.328125 11.976562 20.191406 11.976562 22.890625 17.035156zM22.019531 3.207031L16.808594 3.207031C16.601562 3.207031 16.433594 3.375 16.433594 3.582031 16.433594 3.789062 16.601562 3.957031 16.808594 3.957031L22.019531 3.957031C22.226562 3.957031 22.398438 3.789062 22.398438 3.582031 22.398438 3.375 22.226562 3.207031 22.019531 3.207031zM13.203125 20.042969L7.992188 20.042969C7.785156 20.042969 7.617188 20.210938 7.617188 20.417969 7.617188 20.625 7.785156 20.792969 7.992188 20.792969L13.203125 20.792969C13.410156 20.792969 13.578125 20.625 13.578125 20.417969 13.578125 20.210938 13.410156 20.042969 13.203125 20.042969zM20.015625 1.601562L12.402344 1.601562C12.191406 1.601562 12.023438 1.773438 12.023438 1.980469 12.023438 2.1875 12.191406 2.355469 12.402344 2.355469L20.015625 2.355469C20.222656 2.355469 20.390625 2.1875 20.390625 1.980469 20.390625 1.773438 20.222656 1.601562 20.015625 1.601562zM18.414062 21.644531L10.796875 21.644531C10.589844 21.644531 10.421875 21.8125 10.421875 22.019531 10.421875 22.226562 10.589844 22.398438 10.796875 22.398438L18.414062 22.398438C18.621094 22.398438 18.789062 22.226562 18.789062 22.019531 18.789062 21.8125 18.621094 21.644531 18.414062 21.644531zM18.414062 21.644531"/>
</svg>

<svg xmlns="http://www.w3.org/2000/svg" width="32" height="32" viewBox="0 0 24 24">
    <path d="M23.957 17.434l-3.207-6.012a.383.383 0 0 0-.332-.2h-1.629v-4.03-.008-.016-.016c-.004 0-.004-.004-.004-.007v-.012l-.004-.016v-.012c-.004 0-.004-.003-.004-.003v-.008c0-.004-.004-.008-.004-.012l-.003-.012c0-.004-.004-.008-.004-.011 0-.004-.004-.008-.004-.008-.004-.008-.004-.012-.004-.016-.004-.004-.008-.008-.008-.012 0-.003-.004-.003-.004-.007s-.004-.008-.008-.012c0-.004-.004-.008-.008-.012 0-.004 0-.004-.003-.008 0-.004-.004-.007-.008-.011 0-.004-.004-.008-.008-.012l-.004-.004c-.004-.004-.008-.008-.008-.012l-.012-.011s-.003-.004-.003-.008c-.004 0-.008-.004-.012-.008l-.008-.008c-.004-.004-.008-.004-.008-.008-.004-.004-.008-.004-.011-.007l-.008-.008c-.004-.004-.008-.004-.012-.008-.004 0-.008-.004-.012-.004a.008.008 0 0 0-.008-.008c-.003-.004-.007-.004-.007-.004a.03.03 0 0 0-.016-.008c-.004-.003-.008-.003-.008-.003-.004-.004-.008-.004-.012-.008-.003 0-.007 0-.011-.004-.004 0-.008-.004-.012-.004s-.008-.004-.008-.004c-.008 0-.011 0-.015-.004l-.016-.004h-.004l-.008-.004-7.207-1.601a.393.393 0 0 0-.265.039L.199 11.27H.191s0 .003-.004.003l-.003.004c-.004 0-.004.004-.008.004-.004.004-.008.004-.008.004l-.004.004c-.004 0-.004.004-.008.004 0 0 0 .004-.004.004 0 0-.004.004-.007.004 0 .004-.004.004-.008.008l-.004.004-.004.003s-.004 0-.004.004c0 0-.004.004-.008.004a.008.008 0 0 1-.008.008v.004l-.007.008H.098c0 .004-.004.004-.004.008l-.008.007s0 .004-.004.004c0 0 0 .004-.004.008l-.004.004s0 .004-.004.004c0 .004-.004.008-.004.008-.004.004-.004.004-.004.008-.003 0-.003.003-.003.003 0 .004-.004.004-.004.004 0 .004-.004.008-.004.008-.004.004-.004.012-.008.016l-.004.004v.004c-.004.004-.004.007-.004.007-.004.008-.004.012-.008.016 0 .004 0 .004-.004.008v.004c0 .004 0 .004-.003.008 0 .003-.004.007-.004.011v.012c-.004.004-.004.008-.004.016-.004.004-.004.007-.004.011v.004l-.004.004v.016c0 .004 0 .008-.004.011v.067c0 .004 0 .008.004.008v.015c0 .004 0 .008.004.012v.02c.004.004.004.011.008.015v.012c0 .004.004.004.004.004v.004l.003.015c.004 0 .004 0 .004.004v.004c0 .004.004.004.004.004v.008c.004.004.008.008.008.012.004.004.004.007.004.011.004 0 .004 0 .004.004 0 0 0 .004.004.004 0 .004.004.008.008.012v.008c.004 0 .004 0 .004.004.003 0 .003.004.007.007 0 0 0 .004.004.008l.004.004c.004.004.004.008.008.008 0 .004.004.004.004.008a32390940308.673 32390940308.673 0 0 0 .012.011c.003.004.003.008.007.008v.004h.004c.004.004.008.008.016.012 0 .004.004.008.008.012 0 0 .004 0 .004.004h.004c0 .003.003.003.003.003s.004.004.008.004l.008.008c.004 0 .004.004.008.004.004.004.008.004.012.008s.004.004.007.004c.004.004.008.004.012.008s.012.004.016.007c.004 0 .008.004.011.004h.004l19.239 8.02a.452.452 0 0 0 .144.027.375.375 0 0 0 .375-.375v-2.555l3.54.915a.364.364 0 0 0 .387-.133.374.374 0 0 0 .038-.41zm-12.7-11.45l5.5 1.223L3 10.57zm6.782 1.684v3.555H3.496zm1.2 11.383L5.405 13.289l13.832 3.578zm.472-2.84L3.328 11.977h16.863l2.7 5.058zm0 0M22.02 3.207h-5.211a.375.375 0 0 0 0 .75h5.21a.378.378 0 0 0 .38-.375.378.378 0 0 0-.38-.375zm0 0M13.203 20.043h-5.21a.375.375 0 0 0 0 .75h5.21a.375.375 0 0 0 0-.75zm0 0M20.016 1.602h-7.614a.38.38 0 0 0-.379.378c0 .208.168.375.38.375h7.613a.375.375 0 0 0 .375-.375.378.378 0 0 0-.375-.378zm0 0M18.414 21.645h-7.617a.375.375 0 0 0-.375.375c0 .207.168.378.375.378h7.617a.378.378 0 0 0 .375-.378.375.375 0 0 0-.375-.375zm0 0"/>
</svg>
